X:162
T: INNSBRUCK ICH MUSS DICH LASSEN
N: E0743
O: Europa, Mitteleuropa, Deutschland
R: Abschieds - Lied, Liebe
M: 4/4
L: 1/8
K: F
F4 | F2G2A4 | c4B4 | A4z2
A2 | c3BG4 | A4F4 | E4z2
G2 | G2F2E2F2 | G4z2
G2 | F2G2A4 | c4B4 | A4z2
A2 | c3BG4 | A4F4 | E4z2
E2 | F2G2A4 | B3AGFG2 | GFF4E2 | F8 | z4

